X: 40
T: les Plaisirs Champetres.
%R: reel, march
Z: 2015 John Chambers <jc:trillian.mit.edu>
S: http://books.google.com/books?id=ipV0y26Vq8EC
B: Giovanni Andrea Gallini "A New Collection of Forty-Four Cotillions" c.1755 #40
M: 2/4
L: 1/8
K: A
% - - - - - - - - - - - - - - - - - - - - - - - - - - - - -
% Voice 1 staff breaks arranged to fit a wider page:
V: 1
|:\
c>Bc>d | efed | cBAG | A2E2 |\
c>Bc>d | efed | cBAG | A2 A2 :|\
ed/c/ de | Tf2 ea | ed/c/ de | Tf2 ea |
gfed | cd/e/ fe | dcBA | B4 |\
c>Bc>d | efed | cBAG | A2E2 |\
c>Bc>d | efed | cBAG | A2 A2 |]
K: Am
"Mineur"\
cAAc | BEEe | dcBd | cB/c/ AE |\
cAAc | BEEe | dcBc | A4 |]\
ec/d/ ec | dggG | cedc | B2G2 |
gf/e/ dc | fz ez | dcdB | c2 C2 |]\
ecce | dB Bz | dBBd | cA Az |\
fg/f/ ez | de/d/ cz | Bc/d/ E^G | A2 A,2 |]
% - - - - - - - - - - - - - - - - - - - - - - - - - - - - -
% Voice 2 preserves the original staff layout:
V: 2 clef=bass middle=d
A>GA>B | cdcB | A2e2 | aAce | a>ga>b | c'd'c'b | a2 e2 | a2 A2 :|
A2 Bc | d2 c2 | A2 Bc | d2 cA | e2 g2 | a2 dc | B2 f2 | edcB |
A>GA>B | cdcB | A2 e2 | aAce | a>ga>b | c'd'c'b | a2 e2 | a2 A2 |]
K: Am
"Mineur"\
a2 c'a | ^g2 e2 | ^f2 ^g2 | a2 A2 | a2 c'a | ^g2 ac | d2 e2 | A4 |]
c2 c'2 | b2 B2 | A2 ^f2 | g2 G2 | e2 a2 | d2 c2 | g2 G2 | c4 |]
c2 c'2 | b2 ^g2 | e2 ^g2 | a2 A2 | d2 c2 | B2 A2 | d2 e2 | A4 |]
% - - - - - - - - - - Dance description - - - - - - - - - -
%%sep 1 1 400
%%center Les Plaisirs Champetres.
%%begintext align
%%   Le Grand Rond - - - 2/1
%%endtext
%%begintext align
%%   All Eight Contretems, the Ladies go Round
%% to the Left and the Gentlemen to the Right,
%% with Rigaudon to each Lady as he meets her - 1/2
%%endtext
%%center M I N E U R.
%%begintext align
%%   Half La Chaine - - - 1/1
%%endtext
%%begintext align
%%   The Poussette - - - 1/2
%%endtext
%%begintext align
%%   Compleat La Chaine - - -1/3
%%endtext
%%sep 1 1 400
